dist/img/pbs.svg

<svg height="53" viewBox="0 0 138 53" width="138" xmlns="http://www.w3.org/2000/svg"><g fill="none" transform="translate(.555025)"><path d="m57.2088135 26.4165712c0 14.5894694-12.8066291 26.4165712-28.6044067 26.4165712-15.7977777 0-28.6044068-11.8271018-28.6044068-26.4165712s12.8066291-26.4165712 28.6044068-26.4165712c15.7977776 0 28.6044067 11.8271018 28.6044067 26.4165712m71.6699305-2.9351746c-3.138539-1.504277-5.641425-2.7150365-5.641425-5.0264864 0-1.6510357 1.509677-2.6416572 4.092019-2.6416572 3.019354 0 5.720882.9172421 7.786756 2.0546222v-5.9804182c-2.464902-.9738886-5.106773-1.509152-7.786756-1.5776563-7.548385 0-10.925294 4.1459341-10.925294 8.658765 0 5.2833142 3.853649 7.8149023 8.064854 9.8695245 4.171476 2.0546222 5.760609 2.9351746 5.760609 5.1365555 0 1.8711738-1.748047 2.9351746-4.687944 2.9351746-3.257559-.0489221-6.393088-1.1526662-8.85942-3.118623v6.347315c2.634283 1.5380098 5.665121 2.3992471 8.779963 2.4948984 7.310015 0 11.958231-3.5222095 11.958231-9.2091102.039729-5.9437285-5.403054-8.4386269-8.541593-9.9429039zm-55.8580501-12.9147681h-9.0580621v31.6998854h6.7538183v-10.0896626h1.3507636c8.462137 0 13.7062782-4.1459341 13.7062782-10.8234563.0397284-6.7509015-4.7276727-10.7867665-12.752798-10.7867665zm-2.3042438 5.2833142h1.9864171c3.9728343 0 6.5154482 2.1280016 6.5154482 5.3933833 0 3.5588992-2.3439722 5.5768317-6.4757199 5.5768317h-2.0261454zm36.6692599 9.355869c2.304244-1.4675873 3.416638-3.6322786 3.416638-6.5307635 0-4.9897967-3.972834-8.1084197-10.408826-8.1084197h-10.4882824v31.6998854h10.9252944c8.38268 0 12.196601-4.9897968 12.196601-9.6126967.211252-3.388868-2.121931-6.4692177-5.641425-7.4480055zm-7.5086564-9.2824896c2.6617994 0 4.3701174 1.504277 4.3701174 3.8891063s-1.867232 3.925796-4.7276725 3.925796h-2.8604406v-7.7782126h3.2179957zm-3.2179957 21.0598776v-8.2918682h4.2906611c3.416637 0 5.442783 1.5409666 5.442783 4.1092444 0 2.7517262-2.026146 4.1459341-6.078437 4.1459341h-3.6550071z" fill="#2638c4"/><g fill="#fff" transform="translate(7.468817 10.566222)"><path d="m41.9929701 16.1071773-3.1782675.5870349v5.430073c0 1.8344841-1.628862 3.2653817-3.7344642 3.2653817h-1.628862v6.3106254h-5.2441413v-6.3106254h1.6288621c2.1056021 0 3.7344642-1.4675873 3.7344642-3.2653817v-5.430073l3.1782674-.5870349c.3155432-.0700463.5797835-.2682566.7187108-.5391149s.1376035-.5852407-.0036006-.855093l-8.342952-14.71256256h5.2044129l8.342952 14.71256256c.3575551.5503452 0 1.2841389-.6753818 1.3942079z"/><path d="m31.2663175 14.7129694-8.342952-14.71276811h-8.6210503c-3.7927505-.0193765-7.43686732 1.36087165-10.12251626 3.83421661-2.68564894 2.47334497-4.19034086 5.83488566-4.17974334 9.3375849.08924096 5.1187743 3.8031812 9.577613 9.13757502 10.9702149v7.5580746h12.87198308v-6.3106254h1.628862c2.1056022 0 3.7344642-1.4675873 3.7344642-3.2653817v-5.430073l3.1782674-.5870349c.3349817-.0402505.6248451-.2349796.7694549-.5169167s.1241374-.6124238-.0543447-.8772912zm-10.8061092-.8438627c-1.7877754 0-3.2577241-1.3575182-3.2577241-3.0085539 0-1.65103572 1.4699487-3.00855396 3.2577241-3.00855396s3.2577241 1.35751824 3.2577241 3.00855396c0 1.6510357-1.4699487 3.0085539-3.2577241 3.0085539z"/></g></g></svg>

<?xml version="1.0" encoding="UTF-8"?>
<svg width="138px" height="53px" viewBox="0 0 138 53" version="1.1" xmlns="http://www.w3.org/2000/svg" xmlns:xlink="http://www.w3.org/1999/xlink">
    <title>pbs-logotype-blue</title>
    <g id="M3" stroke="none" stroke-width="1" fill="none" fill-rule="evenodd">
        <g id="Passport_Tablet_M3" transform="translate(-509.000000, -1406.000000)" fill-rule="nonzero">
            <g id="s3-table" transform="translate(47.690691, 1406.000000)">
                <g id="thead" transform="translate(-0.000000, 0.000000)">
                    <g id="pbs_video" transform="translate(458.073076, 0.000000)">
                        <g id="pbs-logotype-blue" transform="translate(3.791258, 0.000000)">
                            <path d="M57.2088135,26.4165712 C57.2088135,41.0060406 44.4021844,52.8331424 28.6044068,52.8331424 C12.8066291,52.8331424 0,41.0060406 0,26.4165712 C0,11.8271018 12.8066291,0 28.6044068,0 C44.4021844,0 57.2088135,11.8271018 57.2088135,26.4165712 M128.878744,23.4813966 C125.740205,21.9771196 123.237319,20.7663601 123.237319,18.4549102 C123.237319,16.8038745 124.746996,15.813253 127.329338,15.813253 C130.348692,15.813253 133.05022,16.7304951 135.116094,17.8678752 L135.116094,11.887457 C132.651192,10.9135684 130.009321,10.378305 127.329338,10.3098007 C119.780953,10.3098007 116.404044,14.4557348 116.404044,18.9685657 C116.404044,24.2518799 120.257693,26.783468 124.468898,28.8380902 C128.640374,30.8927124 130.229507,31.7732648 130.229507,33.9746457 C130.229507,35.8458195 128.48146,36.9098203 125.541563,36.9098203 C122.284004,36.8608982 119.148475,35.7571541 116.682143,33.7911973 L116.682143,40.1385123 C119.316426,41.6765221 122.347264,42.5377594 125.462106,42.6334107 C132.772121,42.6334107 137.420337,39.1112012 137.420337,33.4243005 C137.460066,27.480572 132.017283,24.9856736 128.878744,23.4813966 L128.878744,23.4813966 Z M73.0206939,10.5666285 L63.9626318,10.5666285 L63.9626318,42.2665139 L70.7164501,42.2665139 L70.7164501,32.1768513 L72.0672137,32.1768513 C80.5293507,32.1768513 85.7734919,28.0309172 85.7734919,21.353395 C85.8132203,14.6024935 81.0458192,10.5666285 73.0206939,10.5666285 Z M70.7164501,15.8499427 L72.7028672,15.8499427 C76.6757015,15.8499427 79.2183154,17.9779443 79.2183154,21.243326 C79.2183154,24.8022252 76.8743432,26.8201577 72.7425955,26.8201577 L70.7164501,26.8201577 L70.7164501,15.8499427 Z M107.38571,25.2058117 C109.689954,23.7382244 110.802348,21.5735331 110.802348,18.6750482 C110.802348,13.6852515 106.829514,10.5666285 100.393522,10.5666285 L89.9052396,10.5666285 L89.9052396,42.2665139 L100.830534,42.2665139 C109.213214,42.2665139 113.027135,37.2767171 113.027135,32.6538172 C113.238387,29.2649492 110.905204,26.1845995 107.38571,25.2058117 L107.38571,25.2058117 Z M99.8770536,15.9233221 C102.538853,15.9233221 104.247171,17.4275991 104.247171,19.8124284 C104.247171,22.1972577 102.379939,23.7382244 99.5194985,23.7382244 L96.6590579,23.7382244 L96.6590579,15.9600118 L99.8770536,15.9600118 L99.8770536,15.9233221 L99.8770536,15.9233221 Z M96.6590579,36.9831997 L96.6590579,28.6913315 L100.949719,28.6913315 C104.366356,28.6913315 106.392502,30.2322981 106.392502,32.8005759 C106.392502,35.5523021 104.366356,36.94651 100.314065,36.94651 L96.6590579,36.94651 L96.6590579,36.9831997 L96.6590579,36.9831997 Z" id="Shape" fill="#2638C4"></path>
                            <g id="Group" transform="translate(7.468817, 10.566222)" fill="#FFFFFF">
                                <path d="M41.9929701,16.1071773 L38.8147026,16.6942122 L38.8147026,22.1242852 C38.8147026,23.9587693 37.1858406,25.3896669 35.0802384,25.3896669 L33.4513764,25.3896669 L33.4513764,31.7002923 L28.2072351,31.7002923 L28.2072351,25.3896669 L29.8360972,25.3896669 C31.9416993,25.3896669 33.5705614,23.9220796 33.5705614,22.1242852 L33.5705614,16.6942122 L36.7488288,16.1071773 C37.064372,16.037131 37.3286123,15.8389207 37.4675396,15.5680624 C37.6064669,15.2972041 37.6051431,14.9828217 37.463939,14.7129694 L29.120987,0.000406842031 L34.3253999,0.000406842031 L42.6683519,14.7129694 C43.025907,15.2633146 42.6683519,15.9971083 41.9929701,16.1071773 L41.9929701,16.1071773 Z" id="Path"></path>
                                <path d="M31.2663175,14.7129694 L22.9233655,0.000201288863 L14.3023152,0.000201288863 C10.5095647,-0.0191752054 6.86544788,1.36107294 4.17979894,3.8344179 C1.49415,6.30776287 -0.0105419194,9.66930356 5.56014311e-05,13.1720028 C0.0892965571,18.2907771 3.8032368,22.7496158 9.13763062,24.1422177 L9.13763062,31.7002923 L22.0096137,31.7002923 L22.0096137,25.3896669 L23.6384757,25.3896669 C25.7440779,25.3896669 27.3729399,23.9220796 27.3729399,22.1242852 L27.3729399,16.6942122 L30.5512073,16.1071773 C30.886189,16.0669268 31.1760524,15.8721977 31.3206622,15.5902606 C31.465272,15.3083235 31.4447996,14.9778368 31.2663175,14.7129694 L31.2663175,14.7129694 Z M20.4602083,13.8691067 C18.6724329,13.8691067 17.2024842,12.5115885 17.2024842,10.8605528 C17.2024842,9.20951708 18.6724329,7.85199884 20.4602083,7.85199884 C22.2479837,7.85199884 23.7179324,9.20951708 23.7179324,10.8605528 C23.7179324,12.5115885 22.2479837,13.8691067 20.4602083,13.8691067 Z" id="Shape"></path>
                            </g>
                        </g>
                    </g>
                </g>
            </g>
        </g>
    </g>
</svg>
